X:1
T:Title
%%score { 1 | 2 }
L:1/8
M:6/8
K:G
V:1 treble nm="Grand Piano"
V:2 treble 
V:1
 z3 z2[Q:1/4=90] G | B>AG GAB |[M:5/8] [CEA]>[G,EG][G,CE] [G,CE]<[G,B,D] |[M:1/8] [B,D] | %4
[M:3/4] B>A GG AB |[M:5/8] [GB][FA][FA] [FA]2 |[M:1/8] G |[M:3/4] B>A GG AB | %8
[M:5/8] [EA]>[EG][CE] [CE]<[B,D] |[M:1/8] D |[M:3/4] E>[DF] [DG]A Bc |[M:5/8] B>GG G2 |[M:1/8] B | %13
[M:3/4] d>e dB/G/- GB | d>d B [FA]2 [GB]/[GB]/ | [Gc]>[Gd] [Ge]e/d/- dB | %16
[M:5/8] A>[B,DG][B,DG] [B,DG]2 |] %17
V:2
 z3 z2 [G,B,D] | [G,DG]>[G,CD][G,B,D] [G,B,D][K:bass][G,CD][G,D] |[M:5/8] C,>C,C, G,,<G,, | %3
[M:1/8] G,, |[M:3/4][K:treble] [G,DG]>[G,CD] [G,B,D][G,B,D] [G,CG][G,DG] | %5
[M:5/8][K:bass] [D,D][D,D][D,D] [D,D]2 |[M:1/8] [G,B,D] | %7
[M:3/4][K:treble] [G,DG]>[G,CD] [G,B,D][G,B,D] [G,CD][K:bass][G,D] | %8
[M:5/8] [C,C]>[C,G,][C,G,] [G,,G,]<[G,,G,] |[M:1/8] [B,,G,] | %10
[M:3/4] [C,G,C]>[C,A,] [B,,G,][D,F,D] [D,G,D][D,A,D] | %11
[M:5/8][K:treble] [G,D]>[G,B,D][G,B,D] [G,B,D]2 |[M:1/8] [G,D] | %13
[M:3/4] [G,B,G]>[G,CG] [G,B,G][G,DG]/[G,B,]/- [G,B,][G,G] | %14
 [G,B,G]>[G,B,G] [G,DG][K:bass] [D,D]2 [G,D]/[G,D]/ | %15
 [E,C]>[D,B,] [C,C][K:treble][G,CG]/[G,B,G]/- [G,B,G][K:bass][G,D] |[M:5/8] [D,CD]>G,,G,, G,,2 |] %17

